!!! OTL: Berkowitz373
!!! Chapter: 1
!!! Section: III
!!! Page: 92
!!! Mode: 
!!! Encoder: DJB
**kern
*staff1
*I"Piano
=1-
*clefG2
*k[b-e-a-d-]
*A-:
*M3/4
4r
4r
4a-/
=2
4.cc\
8b-\
4a-/
=3
4a-/
4e-/
4cc\
=4
4.ddn\
8ee-\
4ff\
=5
4ee-\
4cc\
4a-/
=6
4b-\
4r
8a-/L
8b-/J
=7
4.cc\
8b-\
4a-/
=8
4a-/
4f-/
4a-/
=9
4e-/
4a-/
4g/
=10
4a-/
4r
4a-/
=11
!!linebreak:original
4.ddn\
8ee-\
4ff\
=12
4ee-\
4cc\
4e-/
=13
4.ddn\
8ee-\
4ff\
=14
2ee-\
8a-/L
8b-/J
=15
4.cc\
8b-\
4a-/
=16
4a-/
4f-/
4a-/
=17
4e-/
4a-/
4g/
=18
2a-/
4r
==
*-
